symbols/web/add_moderator/materialsymbolsrounded/add_moderator_wght700_48px.svg

<svg xmlns="http://www.w3.org/2000/svg" height="48" width="48"><path d="M24 45.1q-.25 0-.525-.025T22.8 44.9q-6.6-2.1-11.325-8.45T6.75 21.9v-9.5q0-1.5.825-2.725T9.8 7.9l12.55-4.7q.85-.3 1.65-.3.8 0 1.65.3L38.2 7.9q1.4.55 2.25 1.775.85 1.225.85 2.725v11.8q-1.15-.75-2.325-1.225-1.175-.475-2.425-.625v-10L24 7.75l-12.55 4.6v9.55q0 3.9 1.25 7.025 1.25 3.125 3.125 5.4Q17.7 36.6 19.85 38.05q2.15 1.45 3.95 2 .35 1.2 1.325 2.45.975 1.25 2.075 1.9-.95.35-1.725.525Q24.7 45.1 24 45.1ZM34.65 44q-3.9 0-6.65-2.775-2.75-2.775-2.75-6.575 0-3.9 2.75-6.675t6.65-2.775q3.85 0 6.625 2.775t2.775 6.675q0 3.8-2.775 6.575Q38.5 44 34.65 44Zm.1-2.45q.55 0 .95-.425.4-.425.4-.975v-4.1h4.15q.55 0 .95-.425.4-.425.4-.975t-.4-.95q-.4-.4-.95-.4H36.1v-4.15q0-.55-.4-.95-.4-.4-.95-.4-.55 0-.975.4-.425.4-.425.95v4.15H29.2q-.55 0-.95.4-.4.4-.4.95 0 .55.425.975.425.425.975.425h4.1v4.15q0 .55.425.95.425.4.975.4ZM24 23.9Z"/></svg>

<svg xmlns="http://www.w3.org/2000/svg" height="48" width="48"><path d="M24 45.1Q23.75 45.1 23.475 45.075Q23.2 45.05 22.8 44.9Q16.2 42.8 11.475 36.45Q6.75 30.1 6.75 21.9V12.4Q6.75 10.9 7.575 9.675Q8.4 8.45 9.8 7.9L22.35 3.2Q23.2 2.9 24 2.9Q24.8 2.9 25.65 3.2L38.2 7.9Q39.6 8.45 40.45 9.675Q41.3 10.9 41.3 12.4V24.2Q40.15 23.45 38.975 22.975Q37.8 22.5 36.55 22.35V12.35Q36.55 12.35 36.55 12.35Q36.55 12.35 36.55 12.35L24 7.75Q24 7.75 24 7.75Q24 7.75 24 7.75L11.45 12.35Q11.45 12.35 11.45 12.35Q11.45 12.35 11.45 12.35V21.9Q11.45 25.8 12.7 28.925Q13.95 32.05 15.825 34.325Q17.7 36.6 19.85 38.05Q22 39.5 23.8 40.05Q24.15 41.25 25.125 42.5Q26.1 43.75 27.2 44.4Q26.25 44.75 25.475 44.925Q24.7 45.1 24 45.1ZM34.65 44Q30.75 44 28 41.225Q25.25 38.45 25.25 34.65Q25.25 30.75 28 27.975Q30.75 25.2 34.65 25.2Q38.5 25.2 41.275 27.975Q44.05 30.75 44.05 34.65Q44.05 38.45 41.275 41.225Q38.5 44 34.65 44ZM34.75 41.55Q35.3 41.55 35.7 41.125Q36.1 40.7 36.1 40.15V36.05H40.25Q40.8 36.05 41.2 35.625Q41.6 35.2 41.6 34.65Q41.6 34.1 41.2 33.7Q40.8 33.3 40.25 33.3H36.1V29.15Q36.1 28.6 35.7 28.2Q35.3 27.8 34.75 27.8Q34.2 27.8 33.775 28.2Q33.35 28.6 33.35 29.15V33.3H29.2Q28.65 33.3 28.25 33.7Q27.85 34.1 27.85 34.65Q27.85 35.2 28.275 35.625Q28.7 36.05 29.25 36.05H33.35V40.2Q33.35 40.75 33.775 41.15Q34.2 41.55 34.75 41.55ZM24 23.9Q24 23.9 24 23.9Q24 23.9 24 23.9Q24 23.9 24 23.9Q24 23.9 24 23.9Q24 23.9 24 23.9Q24 23.9 24 23.9Q24 23.9 24 23.9Q24 23.9 24 23.9Q24 23.9 24 23.9Q24 23.9 24 23.9Q24 23.9 24 23.9Q24 23.9 24 23.9Q24 23.9 24 23.9Q24 23.9 24 23.9Q24 23.9 24 23.9Q24 23.9 24 23.9Z"/></svg>
